src/pos-icons/server-network.svg

<svg height="24" viewBox="0 0 24 24" width="24" xmlns="http://www.w3.org/2000/svg"><path d="m13 19h1a1 1 0 0 1 1 1h7v2h-7a1 1 0 0 1 -1 1h-4a1 1 0 0 1 -1-1h-7v-2h7a1 1 0 0 1 1-1h1v-2h-7a1 1 0 0 1 -1-1v-4a1 1 0 0 1 1-1h16a1 1 0 0 1 1 1v4a1 1 0 0 1 -1 1h-7zm-9-16h16a1 1 0 0 1 1 1v4a1 1 0 0 1 -1 1h-16a1 1 0 0 1 -1-1v-4a1 1 0 0 1 1-1m5 4h1v-2h-1zm0 8h1v-2h-1zm-4-10v2h2v-2zm0 8v2h2v-2z"/></svg>

<?xml version="1.0" encoding="UTF-8"?><!DOCTYPE svg PUBLIC "-//W3C//DTD SVG 1.1//EN" "http://www.w3.org/Graphics/SVG/1.1/DTD/svg11.dtd"><svg xmlns="http://www.w3.org/2000/svg" xmlns:xlink="http://www.w3.org/1999/xlink" version="1.1" id="mdi-server-network" width="24" height="24" viewBox="0 0 24 24"><path d="M13,19H14A1,1 0 0,1 15,20H22V22H15A1,1 0 0,1 14,23H10A1,1 0 0,1 9,22H2V20H9A1,1 0 0,1 10,19H11V17H4A1,1 0 0,1 3,16V12A1,1 0 0,1 4,11H20A1,1 0 0,1 21,12V16A1,1 0 0,1 20,17H13V19M4,3H20A1,1 0 0,1 21,4V8A1,1 0 0,1 20,9H4A1,1 0 0,1 3,8V4A1,1 0 0,1 4,3M9,7H10V5H9V7M9,15H10V13H9V15M5,5V7H7V5H5M5,13V15H7V13H5Z" /></svg>
